X:1
T:Sweet Child
M:2/4
L:1/8
N:AEae tuning
B:Thede - The Fiddle Book (1967, p. 72)
K:A
A,(F/G/) [AA][AA]|(A/c/)B/A/ (F/E/)F/G/|[AA][A2A2] (A/B/|c)[ee] [ee][ee]-|[e2e2](af/ e/)(c/A/c/)|
[ce][ee] [Ae](f/g/|a) a (e/f/e/)d/-|c(c/B/ A/)(A/A/c/)|B(A/B/ c/)A/B/A/|(F/E/)(F/G/)|[AA]!fermata![AA]||
P:Vocal:
F|AA/A/ F/F/E/F/|A/A/A/A/ F>E|F/A2 A/B/|c/c/c B/A/A/B/|
c/c/c/c/ c>B|c/e2e|e/e/e c/c/A/B/|c/c/c/c/ B/AA/|
BB BA/B/|cA F>E|A/A/-A e/d/(^B/c/)|A3z||

